X: 20022
Q: "Slow."
M: C
L: 1/8
K: F
(F/G/A) |\
{G}F3E (DE)(FG) | A2(G>F) F2(AB) |\
c2F2 (dcB)A | (A2G2) z2AG |\
{G}F3E (D>EF)G | A2(GF) f3c |\
d3A (c>dc)B | {B}A6 :|
|: c2 |\
d2{de}f2 c3d | A2{AB}c2 (BAG)F |\
(BAB)c (d>ef)A | (A2G2) z2(AG) |\
d3A (c>dc)B |1 {B}A6 :|2 {A}G2 F4) |]


